X: 5
T:Lovat Scouts, The
M:2/4
L:1/8
C:J. S. Skinner
R:Quickstep March
K:A
A/A/|"A"Ac eA/A/|"D"df ag/f/|"A"e>c Ac|"E"B3 A/A/|"A"Ac eA/A/|!
"D" df ag/f/|"A"e>c "E"dB|"A"A2 A:| e/e/|"A"aA ce|"D"fd df|"A"e>c Ac|!
"E"B3 e/e/|"A"aA ce|"D"fa df|"A"e>c "E"dB|"A"A2 Ae/e/|"A"aA ce|"D"fa df|
